X:1     %Music
T:Newcastle Fair
B:Singing Together, Summer 1976, BBC Publications
F:http://www.folkinfo.org/songs
M:2/4     %Meter
L:1/16     %
K:D
E2 |A2(AG) A2B2 |G2F2 E2E2 |A2(AG) AAB2 | c2(dc) B2
w:When I was_ young and had nae sense, I bought a_ fid-dle for eight-teen_ pence, 
ee |e2dc d2(cB) |c2d2 B3A |A2AG F2B2 | G2F2 E2
w:But the on-ly_ tune that_ I could play was "O-ver the hills and far a-way",
B2 |A2G2 F2B2 |G2F2 E2e2 |e2ed c2d2 | B3A A2 z2 |]
w:And far a-way, and far a-way, Was "O-ver the hills and far a-way!" 

